assets/heliumbrowser/original.svg

<svg viewBox="0 0 24 24" xmlns="http://www.w3.org/2000/svg"><path d="m14.308 22.298-2.308 1.702-2.308-1.702 1.049-8.118-6.518 4.966-2.63-1.146.322-2.847 7.565-3.153-7.565-3.153-.321-2.847 2.63-1.146 6.517 4.967-1.051-8.121 2.31-1.7 2.308 1.702-1.048 8.118 6.518-4.967 2.629 1.147-.322 2.847-7.565 3.153 7.566 3.153.321 2.847-2.63 1.146-6.517-4.966z" fill="#3450d1"/></svg>

<svg xmlns="http://www.w3.org/2000/svg" viewBox="0 0 24 24"><title>Helium Browser</title><path fill="#3450d1" d="M14.308 22.298 12 24l-2.308-1.702 1.049-8.118-6.518 4.966L1.593 18l.322-2.847L9.48 12 1.915 8.847 1.594 6l2.63-1.146 6.517 4.967L9.69 1.7 12 0l2.308 1.702L13.26 9.82l6.518-4.967L22.407 6l-.322 2.847L14.52 12l7.566 3.153.321 2.847-2.63 1.146-6.517-4.966z"/></svg>
